X:65
T: TUARL HAUT GSAGT
N: K0973
O: Europa, Mitteleuropa, Deutschland, Boehmen
R: Kinder - Lied, Pflanzen
M: 3/4
L: 1/8
K: G
 | B2B2B2 | B2B2B2 |
ddc2B2 | A4z2 |
c2B2A2 | G4z2 |
B2B2B2 | B2B2B2 |
ddc2B2 | A4z2 |
c2B2A2 | G4z2

